X: 502
T: Vals efter Bernhard Westling
S: efter Bernhard Westling
R: Vals
O: Enånger, Hälsingland
Z: Håkan Lidén, 2008-09-27
N:Se även [[http://www.youtube.com/watch?v=iREPECCnOMA&feature=channel_page|klipp på Youtube]].
Q: 1/4 = 160
M: 3/4
L: 1/8
K: G
Bc |: "G" d2 Bd Bd | g2 Bd Bd | "D" c2 Ac Ac |1 "G" B2 G2 Bc :|2 "G" B3 GBc |: 
"G" d2 Bd Bd | g2 Bd Bd | "D" dc Ac Ac |1 "G" B2 G2 Bc :|2 "G" B3 GBc |: "G" d3 Bdg | 
"G" b4 "D" aa | "C" ag fg ec | "G" d4 AA | "D" AB cd ef | "G" g4 Bd | "D" dc Bc AF |1 "G" G3 GBc :|2 "G" G4 |]
(:musicend:)

(:music:)
